**kern	**silbe
*ICvox	*
*G:	*
*M4/4	*
*clefG2	*
r;	.
r;	.
=1	=1
1r	.
=2	=2
1r	.
=3	=3
1r	.
=4	=4
1r	.
=5	=5
1r	.
=6	=6
1r	.
=7	=7
1r	.
=8	=8
1r	.
=9	=9
4r	.
16f#	Big
8e	_
8.e	wheel
8d	_
16d	keep
8d	on
[16d	turn-
=10	=10
8d]	_
16e	-in'
16r	.
4r	.
2r	.
=11	=11
4r	.
16f#	Car-
16e	-ry
8e	me
8.e	home
16d	to
16d	see
8d	my
[16d	kin
=12	=12
4d]	_
4r	.
2r	.
=13	=13
4r	.
16f#	Sing-
8.e	-in'
8e	songs
16d	a-
8.d	-bout
16d	the
[16d	south
=14	=14
8d]	_
4G	land
8r	.
2r	.
=15	=15
8.r	.
16d	I
16f#	miss
8e	ole'
8.e	ba-
8d	-my
8d	once
16d	a-
[16d	-gain
=16	=16
16d]	_
16d	and
8d	I
16d	think
16d	it's
16d	a
8.G	sin
8r	.
16r	.
8.B	Yes
=17	=17
1r	.
=18	=18
1r	.
=19	=19
1r	.
=20	=20
1r	.
=21	=21
8r	.
16d	Well
16d	I
8f#	heard
16e	mis-
16e	-ter
4e	Young
8e	sing
16d	a-
[16d	-bout
=22	=22
8d]	_
16G	her
16r	.
4r	.
2r	.
=23	=23
8r	.
16d	Well
16d	I
16f#	heard
8e	ole'
8.e	Neil
8d	_
8d	put
16e	her
[16d	down
=24	=24
4d]	_
4r	.
2r	.
=25	=25
8r	.
16d	Well
16d	I
8f#	hope
8e	Neil
4e	Young
8e	will
16d	re-
[16d	-mem-
=26	=26
8d]	_
8G	-ber
4r	.
2r	.
=27	=27
8.r	.
16d	A
16f#	South-
8e	-ern
8.e	man
8d	don't
8d	need
16d	him
16d	a-
=28	=28
4d	-round
16d	an-
16d	-y
8G	how
2r	.
=29	=29
4r	.
4f#	Sweet
4e	home
8.d	A-
16d	-la-
=30	=30
8d	-ba-
8G	-ma
4r	.
2r	.
=31	=31
4r	.
8f#	Where
8e	the
4e	skies
8d	are
16d	so
[16d	blue
=32	=32
4d]	_
4r	.
2r	.
=33	=33
4r	.
4f#	Sweet
4e	home
8.d	A-
16d	-la-
=34	=34
8d	-ba-
8G	-ma
4r	.
2r	.
=35	=35
4r	.
8f#	Lord
8e	I'm
16e	com-
8.d	-in'
8.d	home
16e	to
=36	=36
4d	you
4r	.
2r	.
=37	=37
1r	.
=38	=38
1r	.
=39	=39
1r	.
=40	=40
1r	.
=41	=41
8r	.
8d	In
16f#	Bir-
8e	-ming-
8.e	-ham
8d	they
8d	love
16d	the
[16d	gove-
=42	=42
8d]	_
8G	-nor
4r	.
4f	Boo
4e	hoo
=43	=43
8d	hoo
8d	Now
16f#	we
8e	all
8.e	did
8d	what
8d	we
16d	could
[16G	do
=44	=44
8G]	_
8r	.
4r	.
2r	.
=45	=45
8r	.
8d	Now
16f#	Wa-
8e	-ter-
[8.e	-gate
8e]	_
8d	does
8d	not
=46	=46
8r	.
4d	bo-
16d	-ther
8.G	me
8r	.
4r	.
=47	=47
4r	.
8f#	Does
8e	your
8e	cons-
8d	-ience
8d	bo-
16e	-ther
[16d	you?
=48	=48
4d]	_
8d	Tell
16d	me
8.G	true
8r	.
4r	.
=49	=49
4r	.
4f#	Sweet
4e	home
8.d	A-
16d	-la-
=50	=50
8d	-ba-
8G	-ma
4r	.
2r	.
=51	=51
4r	.
8f#	Where
8e	the
4e	skies
8d	are
16d	so
[16d	blue
=52	=52
4d]	_
4r	.
2r	.
=53	=53
4r	.
4f#	Sweet
4e	home
8.d	A-
16d	-la-
=54	=54
8d	-ba-
8G	-ma
4r	.
2r	.
=55	=55
4r	.
8f#	Lord
8e	I'm
16e	com-
8.d	-in'
8.d	home
16e	to
=56	=56
8d	you
16d	Here
16d	I
8G	come
8r	.
8r	.
16B	A-
16B	-la-
16B	-ba-
16G	-ma
8r	.
=57	=57
1r	.
=58	=58
1r	.
=59	=59
1r	.
=60	=60
1r	.
=61	=61
1r	.
=62	=62
1r	.
=63	=63
1r	.
=64	=64
1r	.
=65	=65
1r	.
=66	=66
1r	.
=67	=67
1r	.
=68	=68
1r	.
=69	=69
1r	.
=70	=70
1r	.
=71	=71
1r	.
=72	=72
1r	.
=73	=73
1r	.
=74	=74
1r	.
=75	=75
1r	.
=76	=76
1r	.
=77	=77
8r	.
8d	Now
16f#	Mus-
8e	-cle
8.e	Shoals
8d	has
8d	got
16d	the
[16d	Swamp-
=78	=78
8d]	_
4G	-ers
8r	.
2r	.
=79	=79
8.r	.
16d	and
16f#	they've
8e	been
8e	known
16d	to
16d	pick
16d	a
8d	song
16e	or
[16d	two
=80	=80
4d]	_
4r	.
2r	.
=81	=81
4r	.
8f#	Lord
8e	they
8e	get
16d	me
[16d	off
4d]	_
=82	=82
8.d	so
8G	much
16r	.
8r	.
2r	.
=83	=83
8r	.
8d	They
8f#	pick
16e	me
8e	up
16d	when
8d	I'm
8d	fee-
16e	-lin'
[16d	blue
=84	=84
8d]	_
8d	Now
16d	how
8d	'bout
8.G	you?
8r	.
4r	.
=85	=85
4r	.
4f#	Sweet
4e	home
8.d	A-
16d	-la-
=86	=86
8d	-ba-
8G	-ma
4r	.
2r	.
=87	=87
4r	.
8f#	Where
8e	the
4e	skies
8d	are
16d	so
[16d	blue
=88	=88
4d]	_
4r	.
2r	.
=89	=89
4r	.
4f#	Sweet
4e	home
8.d	A-
16d	-la-
=90	=90
8d	-ba-
8G	-ma
4r	.
2r	.
=91	=91
4r	.
8f#	Lord
8e	I'm
16e	com-
8.d	-in'
8.d	home
16e	to
=92	=92
4d	you
4r	.
2r	.
=93	=93
4r	.
4f#	Sweet
4e	home
8.d	A-
16d	-la-
=94	=94
8d	-ba-
8G	-ma
16d	Oh
8d	sweet
8.G	home
8r	.
4r	.
=95	=95
4r	.
8f#	Where
8e	the
4e	skies
8d	are
16d	so
[16d	blue
=96	=96
4d]	_
4r	.
2r	.
=97	=97
4r	.
4f#	Sweet
4e	home
8.d	A-
16d	-la-
=98	=98
8d	-ba-
8G	-ma
8r	.
[4d	Lord
16d]	_
16G	yeh
4r	.
=99	=99
4r	.
8f#	Lord
8e	I'm
16e	com-
8.d	-in'
8.d	home
16e	to
=100	=100
4d	you
4r	.
16r	.
4..f	Yeah
=101	=101
16B	yeah
8.A	_
4r	.
2r	.
=102	=102
1r	.
=103	=103
1r	.
=104	=104
1r	.
=105	=105
1r	.
=106	=106
1r	.
=107	=107
1r	.
=108	=108
1r	.
=109	=109
1r	.
=110	=110
1r	.
=111	=111
1r	.
=112	=112
1r	.
=113	=113
1r	.
=114	=114
1r	.
=115	=115
1r	.
=116	=116
1r	.
r;	.
r;	.
*-	*-
!!!ENC: Nathaniel Condit-Schultz
!!!MBID: 2b2f23a7-3ee0-4fc0-991c-c0e327ffbb1e
